images/cvlinks/whatsap.svg

<svg width="12" height="12" viewBox="0 0 12 12" fill="none" xmlns="http://www.w3.org/2000/svg">
    <path id="Vector"
          d="M6.375 11.25C5.40625 11.25 4.49609 11.0156 3.64453 10.5469L0 12L1.45312 8.35547C0.984375 7.50391 0.75 6.59375 0.75 5.625C0.75 4.85938 0.898438 4.13086 1.19531 3.43945C1.49219 2.74805 1.89258 2.15039 2.39648 1.64648C2.90039 1.14258 3.49805 0.742188 4.18945 0.445312C4.88086 0.148438 5.60938 0 6.375 0C7.14062 0 7.86914 0.148438 8.56055 0.445312C9.25195 0.742188 9.84961 1.14258 10.3535 1.64648C10.8574 2.15039 11.2578 2.74805 11.5547 3.43945C11.8516 4.13086 12 4.85938 12 5.625C12 6.39062 11.8516 7.11914 11.5547 7.81055C11.2578 8.50195 10.8574 9.09961 10.3535 9.60352C9.84961 10.1074 9.25195 10.5078 8.56055 10.8047C7.86914 11.1016 7.14062 11.25 6.375 11.25ZM8.25 6.75H7.5L7.07812 7.125C6.72656 7.03125 6.29492 6.72852 5.7832 6.2168C5.27148 5.70508 4.96875 5.27344 4.875 4.92188L5.25 4.5V3.75C5.25 3.61719 5.20312 3.48438 5.10938 3.35156C5.01562 3.21875 4.91211 3.12305 4.79883 3.06445C4.68555 3.00586 4.60547 3 4.55859 3.04688L4.00781 3.59766C3.70312 3.90234 3.6582 4.37695 3.87305 5.02148C4.08789 5.66602 4.49805 6.29102 5.10352 6.89648C5.70898 7.50195 6.33398 7.91211 6.97852 8.12695C7.62305 8.3418 8.09766 8.29688 8.40234 7.99219L8.95312 7.44141C9 7.39453 8.99414 7.31445 8.93555 7.20117C8.87695 7.08789 8.78125 6.98438 8.64844 6.89062C8.51562 6.79688 8.38281 6.75 8.25 6.75Z"
          fill="#2F495E"/>
</svg>

<svg width="12" height="12" viewBox="0 0 12 12" fill="none" xmlns="http://www.w3.org/2000/svg"><path id="Vector" d="M6.375 11.25a5.576 5.576 0 01-2.73-.703L0 12l1.453-3.645a5.575 5.575 0 01-.703-2.73c0-.766.148-1.494.445-2.186a5.669 5.669 0 011.201-1.793A5.669 5.669 0 014.19.446 5.482 5.482 0 016.375 0c.766 0 1.494.148 2.186.445a5.691 5.691 0 011.793 1.201 5.67 5.67 0 011.2 1.793c.298.692.446 1.42.446 2.186s-.148 1.494-.445 2.186a5.67 5.67 0 01-1.201 1.793 5.67 5.67 0 01-1.793 1.2 5.481 5.481 0 01-2.186.446zm1.875-4.5H7.5l-.422.375c-.351-.094-.783-.396-1.295-.908-.512-.512-.814-.944-.908-1.295L5.25 4.5v-.75a.688.688 0 00-.14-.398.89.89 0 00-.311-.288c-.113-.058-.194-.064-.24-.017l-.551.55c-.305.305-.35.78-.135 1.424.215.645.625 1.27 1.23 1.875.606.606 1.231 1.016 1.876 1.231.644.215 1.119.17 1.423-.135l.551-.55c.047-.047.041-.128-.017-.24a.89.89 0 00-.288-.311.688.688 0 00-.398-.141z" fill="#2F495E"/></svg>
